src/assets/icons/nft-none.svg

<?xml version="1.0" encoding="UTF-8"?>
<svg width="80px" height="80px" viewBox="0 0 80 80" version="1.1" xmlns="http://www.w3.org/2000/svg" xmlns:xlink="http://www.w3.org/1999/xlink">
    <title>蒙版</title>
    <defs>
        <linearGradient x1="50%" y1="0%" x2="50%" y2="100%" id="linearGradient-1">
            <stop stop-color="#3BC164" offset="0%"></stop>
            <stop stop-color="#6DE29D" stop-opacity="0" offset="100%"></stop>
        </linearGradient>
        <circle id="path-2" cx="40" cy="40" r="40"></circle>
        <radialGradient cx="93.6054486%" cy="5.39642828%" fx="93.6054486%" fy="5.39642828%" r="113.770118%" gradientTransform="translate(0.936054,0.053964),scale(0.675378,1.000000),rotate(137.899916),translate(-0.936054,-0.053964)" id="radialGradient-4">
            <stop stop-color="#FFFFFF" stop-opacity="0.700688716" offset="0%"></stop>
            <stop stop-color="#3BC164" stop-opacity="0.2" offset="100%"></stop>
        </radialGradient>
        <radialGradient cx="93.4411675%" cy="9.30179374%" fx="93.4411675%" fy="9.30179374%" r="98.2584786%" gradientTransform="translate(0.934412,0.093018),scale(0.675378,1.000000),rotate(135.125467),scale(1.000000,0.962800),translate(-0.934412,-0.093018)" id="radialGradient-5">
            <stop stop-color="#FFFFFF" offset="0%"></stop>
            <stop stop-color="#FFFFFF" stop-opacity="0" offset="100%"></stop>
        </radialGradient>
        <radialGradient cx="93.9318159%" cy="8.09318615%" fx="93.9318159%" fy="8.09318615%" r="120.087563%" gradientTransform="translate(0.939318,0.080932),scale(0.740159,1.000000),rotate(146.536067),translate(-0.939318,-0.080932)" id="radialGradient-6">
            <stop stop-color="#FFD527" offset="0%"></stop>
            <stop stop-color="#08C118" offset="100%"></stop>
        </radialGradient>
        <linearGradient x1="91.0085182%" y1="29.4375978%" x2="27.3861504%" y2="50%" id="linearGradient-7">
            <stop stop-color="#FFFFFF" stop-opacity="0.598635373" offset="0%"></stop>
            <stop stop-color="#FFFFFF" stop-opacity="0" offset="100%"></stop>
        </linearGradient>
        <radialGradient cx="93.9318159%" cy="8.09318615%" fx="93.9318159%" fy="8.09318615%" r="169.177568%" gradientTransform="translate(0.939318,0.080932),scale(0.476297,1.000000),rotate(156.957765),translate(-0.939318,-0.080932)" id="radialGradient-8">
            <stop stop-color="#FFD527" offset="0%"></stop>
            <stop stop-color="#08C118" offset="100%"></stop>
        </radialGradient>
        <linearGradient x1="91.0085182%" y1="41.4851092%" x2="27.3861504%" y2="50%" id="linearGradient-9">
            <stop stop-color="#FFFFFF" stop-opacity="0.598635373" offset="0%"></stop>
            <stop stop-color="#FFFFFF" stop-opacity="0" offset="100%"></stop>
        </linearGradient>
        <radialGradient cx="93.9318159%" cy="8.09318615%" fx="93.9318159%" fy="8.09318615%" r="120.072037%" gradientTransform="translate(0.939318,0.080932),scale(0.740296,1.000000),rotate(146.531169),translate(-0.939318,-0.080932)" id="radialGradient-10">
            <stop stop-color="#FFD527" offset="0%"></stop>
            <stop stop-color="#08C118" offset="100%"></stop>
        </radialGradient>
        <linearGradient x1="91.0085182%" y1="29.4299554%" x2="27.3861504%" y2="50%" id="linearGradient-11">
            <stop stop-color="#FFFFFF" stop-opacity="0.598635373" offset="0%"></stop>
            <stop stop-color="#FFFFFF" stop-opacity="0" offset="100%"></stop>
        </linearGradient>
        <filter x="-45.9%" y="-46.1%" width="191.8%" height="192.1%" filterUnits="objectBoundingBox" id="filter-12">
            <feGaussianBlur stdDeviation="2.7" in="SourceGraphic"></feGaussianBlur>
        </filter>
    </defs>
    <g id="扩展程序" stroke="none" stroke-width="1" fill="none" fill-rule="evenodd">
        <g id="NFT" transform="translate(-148.000000, -148.000000)">
            <g id="编组-13" transform="translate(148.000000, 148.000000)">
                <mask id="mask-3" fill="white">
                    <use xlink:href="#path-2"></use>
                </mask>
                <use id="蒙版" fill="url(#linearGradient-1)" opacity="0.100000001" xlink:href="#path-2"></use>
                <g mask="url(#mask-3)">
                    <g transform="translate(16.000000, 12.800000)">
                        <path d="M20.8433203,77.6 L15.8210189,77.6 L30.7853224,42.0248156 L34.9149982,43.7982086 L27.2040189,62.3188156 L44.7890189,62.3188156 L37.0798717,43.7982086 L41.2095476,42.0248156 L56.1738511,77.6 L51.1515497,77.6 L45.9230189,65.0428156 L26.0700189,65.0428156 L20.8433203,77.6 Z" id="形状结合" stroke="none" fill="#D8A879" fill-rule="nonzero"></path>
                        <path d="M39.4396865,0 L39.439,50.12 L72,50.1200738 L72,53.9326133 L0,53.9326133 L0,50.1200738 L32.55,50.12 L32.5500534,0 L39.4396865,0 Z" id="形状结合" stroke="none" fill="#E9BD91" fill-rule="nonzero"></path>
                        <path d="M69.7898227,4.299026 L69.7898227,49.6284766 L2.20504723,49.6284766 L2.20504723,4.299026 L69.7898227,4.299026 Z" id="Rectangle-path" stroke="url(#radialGradient-5)" stroke-width="0.972972973" fill="url(#radialGradient-4)" fill-rule="evenodd"></path>
                        <path d="M60.2470965,36.1427315 L69.3605856,49.6335873 L51.1336075,49.6335873 L60.2470965,36.1427315 Z" id="Shape" stroke="url(#linearGradient-7)" stroke-width="0.972972973" fill="url(#radialGradient-6)" fill-rule="evenodd"></path>
                        <path d="M26.9429284,25.1263116 L52.6698367,49.6335873 L1.21602007,49.6335873 L26.9429284,25.1263116 Z" id="Shape" stroke="url(#linearGradient-9)" stroke-width="0.972972973" fill="url(#radialGradient-8)" fill-rule="evenodd"></path>
                        <path d="M36.1205558,41.3045916 L41.7149381,49.5875915 L30.5261734,49.5875915 L36.1205558,41.3045916 Z" id="Shape" stroke="url(#linearGradient-11)" stroke-width="0.972972973" fill="url(#radialGradient-10)" fill-rule="evenodd"></path>
                        <ellipse id="Oval" stroke="none" fill="#FE9227" fill-rule="nonzero" opacity="0.5" filter="url(#filter-12)" cx="53.598575" cy="18.4340885" rx="8.82365515" ry="8.79030558"></ellipse>
                    </g>
                </g>
            </g>
        </g>
    </g>
</svg>

<svg width="80" height="80" xmlns="http://www.w3.org/2000/svg" xmlns:xlink="http://www.w3.org/1999/xlink"><defs><radialGradient cx="93.605%" cy="5.396%" fx="93.605%" fy="5.396%" r="113.77%" gradientTransform="matrix(-.50111 .67043 -.4528 -.74197 1.43 -.534)" id="e"><stop stop-color="#fff" stop-opacity=".701" offset="0"/><stop stop-color="#3bc164" stop-opacity=".2" offset="100%"/></radialGradient><radialGradient cx="93.441%" cy="9.302%" fx="93.441%" fy="9.302%" r="98.258%" gradientTransform="matrix(-.4786 .70556 -.4588 -.6823 1.424 -.503)" id="d"><stop stop-color="#fff" offset="0"/><stop stop-color="#fff" stop-opacity="0" offset="100%"/></radialGradient><radialGradient cx="93.932%" cy="8.093%" fx="93.932%" fy="8.093%" r="120.088%" gradientTransform="scale(-.74016 -1) rotate(-33.464 -.434 3.673)" id="g"><stop stop-color="#ffd527" offset="0"/><stop stop-color="#08c118" offset="100%"/></radialGradient><radialGradient cx="93.932%" cy="8.093%" fx="93.932%" fy="8.093%" r="169.178%" gradientTransform="matrix(-.4383 .39141 -.18643 -.92022 1.366 -.212)" id="i"><stop stop-color="#ffd527" offset="0"/><stop stop-color="#08c118" offset="100%"/></radialGradient><radialGradient cx="93.932%" cy="8.093%" fx="93.932%" fy="8.093%" r="120.072%" gradientTransform="scale(-.7403 -1) rotate(-33.469 -.434 3.672)" id="k"><stop stop-color="#ffd527" offset="0"/><stop stop-color="#08c118" offset="100%"/></radialGradient><linearGradient x1="91.009%" y1="29.438%" x2="27.386%" y2="50%" id="f"><stop stop-color="#fff" stop-opacity=".599" offset="0"/><stop stop-color="#fff" stop-opacity="0" offset="100%"/></linearGradient><linearGradient x1="50%" y1="0" x2="50%" y2="100%" id="b"><stop stop-color="#3bc164" offset="0"/><stop stop-color="#6de29d" stop-opacity="0" offset="100%"/></linearGradient><linearGradient x1="91.009%" y1="41.485%" x2="27.386%" y2="50%" id="h"><stop stop-color="#fff" stop-opacity=".599" offset="0"/><stop stop-color="#fff" stop-opacity="0" offset="100%"/></linearGradient><linearGradient x1="91.009%" y1="29.43%" x2="27.386%" y2="50%" id="j"><stop stop-color="#fff" stop-opacity=".599" offset="0"/><stop stop-color="#fff" stop-opacity="0" offset="100%"/></linearGradient><filter x="-45.9%" y="-46.1%" width="191.8%" height="192.1%" filterUnits="objectBoundingBox" id="l"><feGaussianBlur stdDeviation="2.7" in="SourceGraphic"/></filter><circle id="a" cx="40" cy="40" r="40"/></defs><g fill="none" fill-rule="evenodd"><mask id="c" fill="#fff"><use xlink:href="#a"/></mask><use fill="url(#b)" opacity=".1" xlink:href="#a"/><g mask="url(#c)"><g transform="translate(16 12.8)"><path d="M20.843 77.6h-5.022l14.964-35.575 4.13 1.773-7.711 18.52h17.585l-7.71-18.52 4.13-1.773L56.175 77.6h-5.022l-5.229-12.557H26.07L20.843 77.6z" fill="#d8a879" fill-rule="nonzero"/><path d="m39.44 0-.001 50.12H72v3.813H0V50.12h32.55V0h6.89z" fill="#e9bd91" fill-rule="nonzero"/><path d="M69.79 4.299v45.33H2.205V4.298H69.79z" stroke="url(#d)" stroke-width=".973" fill="url(#e)"/><path d="m60.247 36.143 9.114 13.49H51.134l9.113-13.49z" stroke="url(#f)" stroke-width=".973" fill="url(#g)"/><path d="M26.943 25.126 52.67 49.634H1.216l25.727-24.508z" stroke="url(#h)" stroke-width=".973" fill="url(#i)"/><path d="m36.12 41.305 5.595 8.283H30.526l5.595-8.283z" stroke="url(#j)" stroke-width=".973" fill="url(#k)"/><ellipse fill="#fe9227" fill-rule="nonzero" opacity=".5" filter="url(#l)" cx="53.599" cy="18.434" rx="8.824" ry="8.79"/></g></g></g></svg>
